X:154
T:Duke of Luxemburgh's March,aka. HA.153, The
T:Untitled in ms. HA.153
M:C
L:1/8
Q:1/4=180
B:Henry Atkinson's original MS,Hartburn,N'umberland,1694.
O:
A:England, Hartburn, Northumberland
N:B music (11 bars) sounds as if it is incomplete. NB
H:
Z:vmp.Neil Brookes, Jan.2004
K:C
c3dc2G2|c4e4|d3ed2A2|d4f4|
e3f"^="e2 (dc)|e2 (fe/2f/2) g4|d3e (dc)B>c|d4G4:|
|:"^u"g2 gg g2 (fe)|f2g2"^="e4|"^="e2de (fe)(dc)|B4 A4|
a2 aa ^f2 ff|d2 dd "^="B2 BB|g2 gg "^="e2 ee|
c2 (cB) A2AA|f2 ff "^="e2 e2|A2d2B2 (cd)|"^="d4c4:|

